epam-assets/icon-sources/18/media-fullscreen_exit.svg

<svg xmlns="http://www.w3.org/2000/svg" width="18" height="18" fill="none" viewBox="0 0 18 18">
  <path fill="#6C6F80" fill-rule="evenodd" d="M10.5 10.5h3.75V12H12v2.25h-1.5V10.5Zm-6.75 0H7.5v3.75H6V12H3.75v-1.5ZM6 3.75h1.5V7.5H3.75V6H6V3.75ZM14.25 6v1.5H10.5V3.75H12V6h2.25Z" clip-rule="evenodd"/>
</svg>

<svg width="18" height="18" viewBox="0 0 18 18" fill="none" xmlns="http://www.w3.org/2000/svg">
<g id="18/media-fullscreen_exit">
<path id="icon" fill-rule="evenodd" clip-rule="evenodd" d="M10.5 10.5H14.25V12H12V14.25H10.5V10.5ZM3.75 10.5H7.5V14.25H6V12H3.75V10.5ZM6 3.75H7.5V7.5H3.75V6H6V3.75ZM14.25 6V7.5H10.5V3.75H12V6H14.25Z" fill="#6C6F80"/>
</g>
</svg>
